priv/static/svgs/icons_new/sport-king-of-glory.svg

<svg width="32" height="32" viewBox="0 0 32 32" fill="none" xmlns="http://www.w3.org/2000/svg">
<path d="M25.3584 11.4548C23.782 7.93163 20.4312 5.5 16.5518 5.5V8.93719C18.5699 8.93719 20.3756 9.91522 21.5809 11.4555M20.5324 21.6186C19.4278 22.5248 18.0482 23.0628 16.5518 23.0628V26.5C20.7124 26.5 24.265 23.703 25.6727 19.7626M11.2004 21.6072C12.3075 22.5201 13.6921 23.0628 15.1954 23.0628V26.5C11.0348 26.5 7.48219 23.703 6.07514 19.7626M6.40566 11.4172C7.98891 7.91416 11.3297 5.5 15.1954 5.5V8.93719C13.1548 8.93719 11.331 9.93739 10.1257 11.5072M7.54561 14.3434L6.94034 17.3455H10.7112M20.5324 14.3434H24.1431L24.6325 16.9643M20.3444 21.0517L21.3272 22.7209L24.6155 19.762H29.5L28.0842 16.5377L27.4194 17.2209L26.7546 13.6171L28.0842 11.4548H18.1198L15.9611 8.28763L13.803 11.4172H3.9158L5.24476 13.5795L4.58059 17.1826L3.9158 16.5001L2.5 19.7244H8.91484L10.7112 22.6826L11.694 21.0141L20.3444 21.0517ZM13.803 13.4263H18.1671L19.2293 17.7745H12.9283L13.803 13.4263Z" stroke="black" stroke-miterlimit="10"/>
</svg>

<svg width="32" height="32" viewBox="0 0 32 32" fill="none" xmlns="http://www.w3.org/2000/svg">
  <symbol id="item" viewBox="0 0 32 32" stroke-width="1" fill="none">
    <path d="M25.358 11.455C23.782 7.932 20.431 5.5 16.552 5.5v3.437c2.018 0 3.824.978 5.029 2.519m-1.049 10.163a6.25 6.25 0 0 1-3.98 1.444V26.5c4.16 0 7.713-2.797 9.12-6.737M11.2 21.607c1.107.913 2.492 1.456 3.995 1.456V26.5c-4.16 0-7.713-2.797-9.12-6.737m.33-8.346C7.99 7.914 11.33 5.5 15.196 5.5v3.437c-2.04 0-3.864 1-5.07 2.57m-2.58 2.836-.605 3.003h3.771m9.821-3.003h3.611l.49 2.621m-4.289 4.088.983 1.669 3.288-2.959H29.5l-1.416-3.224-.665.683-.664-3.604 1.33-2.162H18.12L15.96 8.288l-2.158 3.13H3.916l1.329 2.162-.664 3.603-.665-.683L2.5 19.724h6.415l1.796 2.959.983-1.669 8.65.038Zm-6.541-7.626h4.364l1.062 4.348h-6.3l.874-4.348Z" stroke="currentColor" stroke-miterlimit="10"/>
  </symbol>
</svg>
